images/business-set1-05.svg

<?xml version="1.0" encoding="UTF-8" standalone="no"?>
<svg width="80px" height="80px" viewBox="0 0 80 80" version="1.1" xmlns="http://www.w3.org/2000/svg" xmlns:xlink="http://www.w3.org/1999/xlink" xmlns:sketch="http://www.bohemiancoding.com/sketch/ns">
    <!-- Generator: Sketch 3.3.3 (12081) - http://www.bohemiancoding.com/sketch -->
    <title>business-set1-05</title>
    <desc>Created with Sketch.</desc>
    <defs></defs>
    <g id="Page-1" stroke="none" stroke-width="1" fill="none" fill-rule="evenodd" sketch:type="MSPage">
        <g id="business-set1-05" sketch:type="MSArtboardGroup" fill="#CD2122">
            <path d="M29.9091787,27.9687499 C29.9135732,27.9736327 29.9145498,27.9799804 29.9187002,27.9849853 C30.0886221,28.1915283 30.0703115,28.4955444 29.8681631,28.6748046 C29.2011709,29.2685546 28.578124,29.923828 28.015624,30.6215819 C25.2802724,34.0102538 24.0292959,38.2612303 24.4921865,42.5908203 C24.9550771,46.9208984 27.0751943,50.8105469 30.4638662,53.5444336 C31.2163076,54.152954 32.0300283,54.6793822 32.8740224,55.1431274 L33.8626699,52.8375854 L35.4477529,56.8037719 L35.4564199,56.8255004 L31.4688711,58.420227 L32.4775381,56.067871 C31.550292,55.5650023 30.6584463,54.988037 29.8359365,54.3222655 C26.2402334,51.4213866 23.9882803,47.2924803 23.4980459,42.6972655 C23.006835,38.1020507 24.33496,33.5903319 27.2373037,29.9936522 C27.8339834,29.2534178 28.4951162,28.5581053 29.2041006,27.9277342 C29.4082021,27.7436522 29.7246084,27.7622069 29.9091787,27.9687499 L29.9091787,27.9687499 Z M46.7226553,43.2016601 C46.7226553,45.5200195 45.1416006,47.2114257 42.4667959,47.7871094 L42.4667959,48.6816406 C42.4667959,48.9580078 42.2431631,49.1816406 41.9667959,49.1816406 L38.6582021,49.1816406 C38.3818349,49.1816406 38.1582021,48.9580078 38.1582021,48.6816406 L38.1582021,47.8730468 C37.1953115,47.7309569 36.1533193,47.4721678 34.9189443,47.071289 C34.6611318,46.9873046 34.5166005,46.7128906 34.593749,46.4531249 L35.4033193,43.7338866 C35.4804677,43.4741209 35.7480459,43.3217772 36.0136709,43.3940428 C39.1953115,44.2563475 39.8388662,44.2963866 40.7871084,44.2963866 C41.8613272,44.2963866 41.9990225,43.7875974 41.9990225,43.3447264 C41.9990225,43.0073241 41.9257803,42.7290037 41.0029287,42.4775389 L38.4130849,41.783203 C36.6357411,41.3007811 34.5966787,40.380371 34.5966787,37.517578 C34.5966787,35.3608397 36.1357412,33.7119139 38.6445303,33.1411132 L38.6445303,32.2421874 C38.6445303,31.9658201 38.8681631,31.7421874 39.1445303,31.7421874 L42.4521475,31.7421874 C42.7285147,31.7421874 42.9521475,31.9658201 42.9521475,32.2421874 L42.9521475,33.0161132 C43.6894522,33.1015624 44.5966787,33.2612304 45.6582022,33.4912109 C45.7900381,33.5200194 45.904296,33.6005859 45.975585,33.7148436 C46.0468741,33.8295897 46.069335,33.9677734 46.0371084,34.0991209 L45.36621,36.8393553 C45.3027334,37.1015623 45.0468741,37.2670897 44.7773428,37.2094726 C42.453124,36.7163084 41.4619131,36.5659178 40.5322256,36.5659178 C39.2744131,36.5659178 39.2744131,37.2666014 39.2744131,37.4970701 C39.2744131,37.6689451 39.2744131,37.9560545 40.3173819,38.2412108 L42.9062491,38.9360349 C45.4736318,39.6142577 46.7226553,41.0097655 46.7226553,43.2016601 L46.7226553,43.2016601 Z M41.8847646,46.8798827 C43.0390615,46.6889647 45.7226552,45.9487304 45.7226552,43.20166 C45.7226552,41.4814452 44.774413,40.463867 42.6484364,39.9023436 L40.055663,39.2065428 C39.2255849,38.979492 38.274413,38.5805662 38.274413,37.4970701 C38.274413,36.3056639 39.1396474,35.5659178 40.5322255,35.5659178 C41.4726552,35.5659178 42.4404286,35.7006834 44.5107411,36.1313475 L44.9433583,34.3627928 C43.9199208,34.1528319 43.0703114,34.0200194 42.4121083,33.967285 C42.1523427,33.9462889 41.9521474,33.729492 41.9521474,33.4687498 L41.9521474,32.7421873 L39.6445302,32.7421873 L39.6445302,33.5507811 C39.6445302,33.7939452 39.4697255,34.001953 39.2294911,34.0434569 C36.9892567,34.4321288 35.5966786,35.7631835 35.5966786,37.517578 C35.5966786,39.2915038 36.4589833,40.2167968 38.673827,40.817871 L41.2636708,41.5122069 C42.0722646,41.7324217 42.9990224,42.13916 42.9990224,43.3447264 C42.9990224,44.5668944 42.171874,45.2963866 40.7871083,45.2963866 C39.7246083,45.2963866 38.9785145,45.2202147 36.2226552,44.4858397 L35.6923818,46.2670897 C36.8447256,46.6206053 37.8144521,46.8354491 38.7148427,46.9370116 C38.9667958,46.9658202 39.1582021,47.1796874 39.1582021,47.4340819 L39.1582021,48.1816405 L41.4667959,48.1816405 L41.4667959,47.3730467 C41.4667959,47.1284179 41.6435537,46.9194335 41.8847646,46.8798827 L41.8847646,46.8798827 Z M68.7958975,14.974121 L68.7958975,64.8579102 C68.7958975,65.1328124 68.5742178,65.3559571 68.2988272,65.3579102 L42.0273428,65.5258789 L42.0244131,65.5258789 C41.8925772,65.5258789 41.765624,65.4736329 41.671874,65.3803712 C41.5771474,65.2866212 41.5244131,65.1591797 41.5244131,65.0258789 L41.5244131,58.1131593 C41.2418203,58.1270752 40.961669,58.1606447 40.6777334,58.1606447 C39.9997549,58.1606447 39.3186025,58.1066896 38.6376943,58.025757 L38.6376943,64.8579103 C38.6376943,65.1342775 38.4140615,65.3579103 38.1376943,65.3579103 L11.7041025,65.3579103 C11.4277353,65.3579103 11.2041025,65.1342775 11.2041025,64.8579103 L11.2041025,15.1440429 C11.2041025,14.8676757 11.4277353,14.6440429 11.7041025,14.6440429 L38.1376943,14.6440429 C38.4140615,14.6440429 38.6376943,14.8676757 38.6376943,15.1440429 L38.6376943,23.684143 C39.5988759,23.56958 40.5639638,23.5428466 41.5244131,23.5892944 L41.5244131,15.1440429 C41.5244131,14.8691406 41.7460928,14.645996 42.0214834,14.6440429 L68.2929678,14.474121 L68.2958975,14.474121 C68.4277334,14.474121 68.5546866,14.5263671 68.6484366,14.6196288 C68.7431631,14.7133788 68.7958975,14.8408202 68.7958975,14.974121 L68.7958975,14.974121 Z M67.7958975,15.477539 L42.5244131,15.6406249 L42.5244131,23.6657714 C45.781249,24.0125732 48.9323721,25.2711791 51.5654287,27.395996 C53.9355459,29.3085937 55.7636709,31.8149413 56.8496084,34.6435546 C56.9482412,34.9013671 56.8203115,35.1904296 56.562499,35.2895507 C56.557372,35.2915038 56.552123,35.2906493 56.5469961,35.2924194 C56.4924307,35.3110962 56.4372549,35.3227539 56.3828115,35.3227539 C56.1816396,35.3227539 55.9921865,35.2006836 55.9160146,35.0019531 C54.8925771,32.3374023 53.1708974,29.9765625 50.937499,28.1743164 C46.4650869,24.564331 40.4150381,23.5941772 35.0371084,25.5796509 L36.1275625,27.8685303 L32.0946035,26.4378052 L32.0800771,26.4326782 L33.5148916,22.3848877 L34.6053457,24.673584 C35.5986318,24.3001709 36.6124258,24.015625 37.6376943,23.8320923 L37.6376943,15.6440429 L12.2041025,15.6440429 L12.2041025,64.3579102 L37.6376943,64.3579102 L37.6376943,57.7891846 C37.5290517,57.6793824 37.4660634,57.5272827 37.4931631,57.3632813 C37.4938955,57.3589478 37.4968252,57.355774 37.4975576,57.3515015 C37.546874,57.0852051 37.8049306,56.9055176 38.0664053,56.9497071 C43.8476553,57.8911133 49.7148428,55.6469727 53.3867178,51.097168 C55.6555166,48.2832032 56.9167471,44.7744751 56.9854727,41.1737061 L54.4632559,41.3551026 L57.2552481,38.1312867 L57.2747793,38.1087037 L60.5218496,40.9193726 L57.987792,41.1016236 C57.9348135,44.9555054 56.5926504,48.7149048 54.1650381,51.7250977 C51.2507315,55.3358765 47.031249,57.5731812 42.5244131,58.0571289 L42.5244131,64.5224609 L67.7958975,64.3613281 L67.7958975,15.477539 L67.7958975,15.477539 Z" id="Shape" sketch:type="MSShapeGroup"></path>
        </g>
    </g>
</svg>

<svg width="80" height="80" xmlns="http://www.w3.org/2000/svg"><g id="Page-1" stroke="none" stroke-width="1" fill="none" fill-rule="evenodd"><g id="business-set1-05" fill="#CD2122"><path d="M29.91 27.969c.004.005.005.011.009.016.17.207.151.51-.05.69a16.36 16.36 0 00-1.853 1.947 16.19 16.19 0 00-3.524 11.969 16.191 16.191 0 005.972 10.953 16.313 16.313 0 002.41 1.6l.989-2.306 1.585 3.966.008.022-3.987 1.594 1.009-2.352a17.182 17.182 0 01-8.98-13.37 17.188 17.188 0 013.74-12.704 17.294 17.294 0 011.966-2.066.498.498 0 01.705.04zm16.813 15.233c0 2.318-1.581 4.01-4.256 4.585v.895a.5.5 0 01-.5.5h-3.309a.5.5 0 01-.5-.5v-.809c-.963-.142-2.005-.4-3.24-.802a.5.5 0 01-.324-.618l.81-2.72a.498.498 0 01.61-.339c3.181.862 3.825.902 4.773.902 1.074 0 1.212-.508 1.212-.951 0-.338-.073-.616-.996-.867l-2.59-.695c-1.777-.482-3.816-1.403-3.816-4.265 0-2.157 1.539-3.806 4.048-4.377v-.899a.5.5 0 01.5-.5h3.307a.5.5 0 01.5.5v.774c.737.086 1.645.245 2.706.475a.5.5 0 01.38.608l-.672 2.74a.495.495 0 01-.589.37c-2.324-.493-3.315-.643-4.245-.643-1.258 0-1.258.7-1.258.931 0 .172 0 .46 1.043.744l2.59.695c2.567.678 3.816 2.074 3.816 4.266zm-4.838 3.678c1.154-.191 3.838-.931 3.838-3.678 0-1.72-.949-2.738-3.075-3.3l-2.592-.695c-.83-.228-1.782-.626-1.782-1.71 0-1.191.866-1.931 2.258-1.931.94 0 1.908.135 3.979.565l.432-1.768c-1.023-.21-1.873-.343-2.53-.396a.5.5 0 01-.46-.498v-.727h-2.308v.809a.5.5 0 01-.416.492c-2.24.39-3.632 1.72-3.632 3.475 0 1.774.862 2.699 3.077 3.3l2.59.694c.808.22 1.735.627 1.735 1.833 0 1.222-.827 1.951-2.212 1.951-1.062 0-1.808-.076-4.564-.81l-.53 1.781c1.152.354 2.121.568 3.022.67a.5.5 0 01.443.497v.748h2.309v-.809a.5.5 0 01.418-.493zm26.91-31.906v49.884a.5.5 0 01-.496.5l-26.272.168h-.003a.5.5 0 01-.5-.5v-6.913c-.282.014-.562.048-.846.048-.678 0-1.36-.054-2.04-.135v6.832a.5.5 0 01-.5.5H11.704a.5.5 0 01-.5-.5V15.144a.5.5 0 01.5-.5h26.434a.5.5 0 01.5.5v8.54a17.312 17.312 0 012.886-.095v-8.445a.5.5 0 01.497-.5l26.272-.17h.003a.5.5 0 01.5.5zm-1 .504l-25.27.163v8.025a17.298 17.298 0 019.04 3.73 17.297 17.297 0 015.285 7.248.5.5 0 01-.288.646c-.005.002-.01 0-.015.002a.5.5 0 01-.631-.29 16.298 16.298 0 00-4.979-6.828 16.326 16.326 0 00-15.9-2.594l1.09 2.289-4.032-1.431-.015-.005 1.435-4.048 1.09 2.289a17.272 17.272 0 013.033-.842v-8.188H12.204v48.714h25.434v-6.569a.49.49 0 01-.145-.426c0-.004.004-.007.005-.011a.5.5 0 01.568-.402 16.344 16.344 0 0015.32-5.853 16.334 16.334 0 003.6-9.923l-2.523.181 2.792-3.224.02-.022 3.247 2.81-2.534.183a17.334 17.334 0 01-3.823 10.623 17.344 17.344 0 01-11.64 6.332v6.465l25.27-.16V15.477z" id="Shape"/></g></g></svg>
